icons/fill-new-office-doc-tickets.svg

<svg xmlns="http://www.w3.org/2000/svg" width="32px" height="32px" viewBox="0 0 32 32" version="1.1">
    <title>fill-new-office-doc-tickets</title>
    <g id="fill-new-office-doc-tickets" stroke-width="1" fill-rule="evenodd">
        <path d="M27,2 C27.5522847,2 28,2.44771525 28,3 L28,29 C28,29.5522847 27.5522847,30 27,30 L5,30 C4.44771525,30 4,29.5522847 4,29 L4,3 C4,2.44771525 4.44771525,2 5,2 L27,2 Z M21,22 L11,22 C10.4477153,22 10,22.4477153 10,23 C10,23.5522847 10.4477153,24 11,24 L21,24 C21.5522847,24 22,23.5522847 22,23 C22,22.4477153 21.5522847,22 21,22 Z M21,16 L11,16 C10.4477153,16 10,16.4477153 10,17 C10,17.5522847 10.4477153,18 11,18 L21,18 C21.5522847,18 22,17.5522847 22,17 C22,16.4477153 21.5522847,16 21,16 Z M15,10 L11,10 C10.4477153,10 10,10.4477153 10,11 C10,11.5522847 10.4477153,12 11,12 L15,12 C15.5522847,12 16,11.5522847 16,11 C16,10.4477153 15.5522847,10 15,10 Z" id="&#24418;&#29366;" />
    </g>
</svg>

<svg xmlns="http://www.w3.org/2000/svg" viewBox="0 0 32 32"><path fill="currentColor" d="M27 2a1 1 0 0 1 1 1v26a1 1 0 0 1-1 1H5a1 1 0 0 1-1-1V3a1 1 0 0 1 1-1zm-6 20H11a1 1 0 0 0 0 2h10a1 1 0 0 0 0-2m0-6H11a1 1 0 0 0 0 2h10a1 1 0 0 0 0-2m-6-6h-4a1 1 0 0 0 0 2h4a1 1 0 0 0 0-2"/></svg>
